groups/aromatics/phenalene.svg

<?xml version='1.0' encoding='iso-8859-1'?>
<svg version='1.1' baseProfile='full'
              xmlns='http://www.w3.org/2000/svg'
                      xmlns:rdkit='http://www.rdkit.org/xml'
                      xmlns:xlink='http://www.w3.org/1999/xlink'
                  xml:space='preserve'
width='256px' height='256px' viewBox='0 0 256 256'>
<!-- END OF HEADER -->
<rect style='opacity:1.0;fill:#FFFFFF;stroke:none' width='256.0' height='256.0' x='0.0' y='0.0'> </rect>
<path class='bond-0 atom-0 atom-1' d='M 222.0,38.2 L 171.3,67.3' style='fill:none;fill-rule:evenodd;stroke:#000000;stroke-width:2.0px;stroke-linecap:butt;stroke-linejoin:miter;stroke-opacity:1' />
<path class='bond-1 atom-1 atom-2' d='M 171.3,67.3 L 171.2,125.8' style='fill:none;fill-rule:evenodd;stroke:#000000;stroke-width:2.0px;stroke-linecap:butt;stroke-linejoin:miter;stroke-opacity:1' />
<path class='bond-1 atom-1 atom-2' d='M 162.5,72.4 L 162.4,120.7' style='fill:none;fill-rule:evenodd;stroke:#000000;stroke-width:2.0px;stroke-linecap:butt;stroke-linejoin:miter;stroke-opacity:1' />
<path class='bond-2 atom-2 atom-3' d='M 171.2,125.8 L 221.8,155.2' style='fill:none;fill-rule:evenodd;stroke:#000000;stroke-width:2.0px;stroke-linecap:butt;stroke-linejoin:miter;stroke-opacity:1' />
<path class='bond-3 atom-3 atom-4' d='M 221.8,155.2 L 221.7,213.6' style='fill:none;fill-rule:evenodd;stroke:#000000;stroke-width:2.0px;stroke-linecap:butt;stroke-linejoin:miter;stroke-opacity:1' />
<path class='bond-3 atom-3 atom-4' d='M 213.0,160.2 L 212.9,208.6' style='fill:none;fill-rule:evenodd;stroke:#000000;stroke-width:2.0px;stroke-linecap:butt;stroke-linejoin:miter;stroke-opacity:1' />
<path class='bond-4 atom-4 atom-5' d='M 221.7,213.6 L 170.9,242.8' style='fill:none;fill-rule:evenodd;stroke:#000000;stroke-width:2.0px;stroke-linecap:butt;stroke-linejoin:miter;stroke-opacity:1' />
<path class='bond-5 atom-5 atom-6' d='M 170.9,242.8 L 120.3,213.4' style='fill:none;fill-rule:evenodd;stroke:#000000;stroke-width:2.0px;stroke-linecap:butt;stroke-linejoin:miter;stroke-opacity:1' />
<path class='bond-5 atom-5 atom-6' d='M 171.0,232.7 L 129.1,208.4' style='fill:none;fill-rule:evenodd;stroke:#000000;stroke-width:2.0px;stroke-linecap:butt;stroke-linejoin:miter;stroke-opacity:1' />
<path class='bond-6 atom-6 atom-7' d='M 120.3,213.4 L 69.6,242.6' style='fill:none;fill-rule:evenodd;stroke:#000000;stroke-width:2.0px;stroke-linecap:butt;stroke-linejoin:miter;stroke-opacity:1' />
<path class='bond-7 atom-7 atom-8' d='M 69.6,242.6 L 19.0,213.2' style='fill:none;fill-rule:evenodd;stroke:#000000;stroke-width:2.0px;stroke-linecap:butt;stroke-linejoin:miter;stroke-opacity:1' />
<path class='bond-7 atom-7 atom-8' d='M 69.6,232.5 L 27.8,208.2' style='fill:none;fill-rule:evenodd;stroke:#000000;stroke-width:2.0px;stroke-linecap:butt;stroke-linejoin:miter;stroke-opacity:1' />
<path class='bond-8 atom-8 atom-9' d='M 19.0,213.2 L 19.1,154.7' style='fill:none;fill-rule:evenodd;stroke:#000000;stroke-width:2.0px;stroke-linecap:butt;stroke-linejoin:miter;stroke-opacity:1' />
<path class='bond-9 atom-9 atom-10' d='M 19.1,154.7 L 69.9,125.6' style='fill:none;fill-rule:evenodd;stroke:#000000;stroke-width:2.0px;stroke-linecap:butt;stroke-linejoin:miter;stroke-opacity:1' />
<path class='bond-10 atom-10 atom-11' d='M 69.9,125.6 L 120.5,154.9' style='fill:none;fill-rule:evenodd;stroke:#000000;stroke-width:2.0px;stroke-linecap:butt;stroke-linejoin:miter;stroke-opacity:1' />
<path class='bond-10 atom-10 atom-11' d='M 78.6,120.6 L 120.5,144.8' style='fill:none;fill-rule:evenodd;stroke:#000000;stroke-width:2.0px;stroke-linecap:butt;stroke-linejoin:miter;stroke-opacity:1' />
<path class='bond-11 atom-10 atom-12' d='M 69.9,125.6 L 70.0,67.1' style='fill:none;fill-rule:evenodd;stroke:#000000;stroke-width:2.0px;stroke-linecap:butt;stroke-linejoin:miter;stroke-opacity:1' />
<path class='bond-12 atom-12 atom-13' d='M 70.0,67.1 L 120.7,38.0' style='fill:none;fill-rule:evenodd;stroke:#000000;stroke-width:2.0px;stroke-linecap:butt;stroke-linejoin:miter;stroke-opacity:1' />
<path class='bond-12 atom-12 atom-13' d='M 78.7,72.2 L 120.7,48.1' style='fill:none;fill-rule:evenodd;stroke:#000000;stroke-width:2.0px;stroke-linecap:butt;stroke-linejoin:miter;stroke-opacity:1' />
<path class='bond-13 atom-11 atom-2' d='M 120.5,154.9 L 171.2,125.8' style='fill:none;fill-rule:evenodd;stroke:#000000;stroke-width:2.0px;stroke-linecap:butt;stroke-linejoin:miter;stroke-opacity:1' />
<path class='bond-14 atom-11 atom-6' d='M 120.5,154.9 L 120.3,213.4' style='fill:none;fill-rule:evenodd;stroke:#000000;stroke-width:2.0px;stroke-linecap:butt;stroke-linejoin:miter;stroke-opacity:1' />
<path class='bond-15 atom-13 atom-1' d='M 120.7,38.0 L 171.3,67.3' style='fill:none;fill-rule:evenodd;stroke:#000000;stroke-width:2.0px;stroke-linecap:butt;stroke-linejoin:miter;stroke-opacity:1' />
<path d='M 219.2,153.7 L 221.8,155.2 L 221.8,158.1' style='fill:none;stroke:#000000;stroke-width:2.0px;stroke-linecap:butt;stroke-linejoin:miter;stroke-miterlimit:10;stroke-opacity:1;' />
<path d='M 221.7,210.7 L 221.7,213.6 L 219.1,215.1' style='fill:none;stroke:#000000;stroke-width:2.0px;stroke-linecap:butt;stroke-linejoin:miter;stroke-miterlimit:10;stroke-opacity:1;' />
<path d='M 173.5,241.3 L 170.9,242.8 L 168.4,241.3' style='fill:none;stroke:#000000;stroke-width:2.0px;stroke-linecap:butt;stroke-linejoin:miter;stroke-miterlimit:10;stroke-opacity:1;' />
<path d='M 72.2,241.1 L 69.6,242.6 L 67.1,241.1' style='fill:none;stroke:#000000;stroke-width:2.0px;stroke-linecap:butt;stroke-linejoin:miter;stroke-miterlimit:10;stroke-opacity:1;' />
<path d='M 21.5,214.7 L 19.0,213.2 L 19.0,210.3' style='fill:none;stroke:#000000;stroke-width:2.0px;stroke-linecap:butt;stroke-linejoin:miter;stroke-miterlimit:10;stroke-opacity:1;' />
<path d='M 19.1,157.7 L 19.1,154.7 L 21.7,153.3' style='fill:none;stroke:#000000;stroke-width:2.0px;stroke-linecap:butt;stroke-linejoin:miter;stroke-miterlimit:10;stroke-opacity:1;' />
<path d='M 70.0,70.0 L 70.0,67.1 L 72.5,65.6' style='fill:none;stroke:#000000;stroke-width:2.0px;stroke-linecap:butt;stroke-linejoin:miter;stroke-miterlimit:10;stroke-opacity:1;' />
<path d='M 118.2,39.4 L 120.7,38.0 L 123.2,39.4' style='fill:none;stroke:#000000;stroke-width:2.0px;stroke-linecap:butt;stroke-linejoin:miter;stroke-miterlimit:10;stroke-opacity:1;' />
<path class='atom-1' d='M207.436,12.8 C205.534,13.8929 206.991,16.429 208.893,15.336 C210.795,14.2431 212.252,16.7792 210.35,17.8721 C208.448,18.965 209.906,21.5011 211.808,20.4081 C213.71,19.3152 215.167,21.8513 213.265,22.9442 C211.363,24.0371 212.82,26.5732 214.722,25.4802 C216.624,24.3873 218.081,26.9234 216.179,28.0163 C214.277,29.1092 215.735,31.6453 217.637,30.5523 C219.539,29.4594 220.996,31.9955 219.094,33.0884 C217.192,34.1813 218.649,36.7174 220.551,35.6244 C222.453,34.5315 223.911,37.0675 222.009,38.1605 C220.107,39.2534 221.564,41.7895 223.466,40.6965 C225.368,39.6036 226.825,42.1396 224.923,43.2326 C223.021,44.3255 224.478,46.8615 226.38,45.7686 C228.282,44.6757 229.74,47.2117 227.838,48.3047 C225.936,49.3976 227.393,51.9336 229.295,50.8407 C231.197,49.7478 232.654,52.2838 230.752,53.3768 C228.85,54.4697 230.308,57.0057 232.209,55.9128 C234.111,54.8199 235.569,57.3559 233.667,58.4489 C231.765,59.5418 233.222,62.0778 235.124,60.9849 C237.026,59.892 238.483,62.428 236.581,63.521' style='fill:none;stroke:#7F7F7F;stroke-width:2.0px;stroke-linecap:butt;stroke-linejoin:miter;stroke-opacity:1' />
</svg>

<svg height="256" viewBox="0 0 256 256" width="256" xmlns="http://www.w3.org/2000/svg"><path d="m0 0h256v256h-256z" fill="#fff"/><g fill="none" stroke-width="2"><path d="m222 38.2-50.7 29.1" stroke="#000"/><path d="m171.3 67.3-.1 58.5" stroke="#000"/><path d="m162.5 72.4-.1 48.3" stroke="#000"/><path d="m171.2 125.8 50.6 29.4" stroke="#000"/><path d="m221.8 155.2-.1 58.4" stroke="#000"/><path d="m213 160.2-.1 48.4" stroke="#000"/><path d="m221.7 213.6-50.8 29.2" stroke="#000"/><path d="m170.9 242.8-50.6-29.4" stroke="#000"/><path d="m171 232.7-41.9-24.3" stroke="#000"/><path d="m120.3 213.4-50.7 29.2" stroke="#000"/><path d="m69.6 242.6-50.6-29.4" stroke="#000"/><path d="m69.6 232.5-41.8-24.3" stroke="#000"/><path d="m19 213.2.1-58.5" stroke="#000"/><path d="m19.1 154.7 50.8-29.1" stroke="#000"/><path d="m69.9 125.6 50.6 29.3" stroke="#000"/><path d="m78.6 120.6 41.9 24.2" stroke="#000"/><path d="m69.9 125.6.1-58.5" stroke="#000"/><path d="m70 67.1 50.7-29.1" stroke="#000"/><path d="m78.7 72.2 42-24.1" stroke="#000"/><path d="m120.5 154.9 50.7-29.1" stroke="#000"/><path d="m120.5 154.9-.2 58.5" stroke="#000"/><path d="m120.7 38 50.6 29.3" stroke="#000"/><path d="m219.2 153.7 2.6 1.5v2.9" stroke="#000" stroke-miterlimit="10"/><path d="m221.7 210.7v2.9l-2.6 1.5" stroke="#000" stroke-miterlimit="10"/><path d="m173.5 241.3-2.6 1.5-2.5-1.5" stroke="#000" stroke-miterlimit="10"/><path d="m72.2 241.1-2.6 1.5-2.5-1.5" stroke="#000" stroke-miterlimit="10"/><path d="m21.5 214.7-2.5-1.5v-2.9" stroke="#000" stroke-miterlimit="10"/><path d="m19.1 157.7v-3l2.6-1.4" stroke="#000" stroke-miterlimit="10"/><path d="m70 70v-2.9l2.5-1.5" stroke="#000" stroke-miterlimit="10"/><path d="m118.2 39.4 2.5-1.4 2.5 1.4" stroke="#000" stroke-miterlimit="10"/><path d="m207.436 12.8c-1.902 1.093-.445 3.629 1.457 2.536s3.359 1.443 1.457 2.536-.444 3.629 1.458 2.536 3.359 1.443 1.457 2.536-.445 3.629 1.457 2.536 3.359 1.443 1.457 2.536-.444 3.629 1.458 2.536 3.359 1.444 1.457 2.536c-1.902 1.093-.445 3.629 1.457 2.536 1.902-1.092 3.36 1.444 1.458 2.537-1.902 1.092-.445 3.629 1.457 2.536s3.359 1.443 1.457 2.536-.445 3.629 1.457 2.536 3.36 1.443 1.458 2.536-.445 3.629 1.457 2.536 3.359 1.443 1.457 2.536-.444 3.629 1.457 2.536c1.902-1.093 3.36 1.443 1.458 2.536s-.445 3.629 1.457 2.536 3.359 1.443 1.457 2.536" stroke="#7f7f7f"/></g></svg>
